src/assets/images/trumpet.svg

<svg fill="none" height="40" viewBox="0 0 40 40" width="40" xmlns="http://www.w3.org/2000/svg" xmlns:xlink="http://www.w3.org/1999/xlink"><clipPath id="a"><path d="m0 0h40v40h-40z"/></clipPath><g clip-path="url(#a)"><path d="m37.4102 16.0547c-.2617-3.9336-1.0937-7.78515-2.4883-11.49609-.0727-.19549-.1935-.36952-.3512-.50606-.1577-.13653-.3472-.23117-.5511-.27519-.4141-.08984-.8438.03516-1.1446.33203-2.2968 2.26563-4.9062 4.07422-7.7656 5.37891-1.6367.7461-3.5 1.3672-5.3828 1.793-.3242.0742-.6484.1406-.9726.2031v-.0039c0-.4727-.3829-.8555-.8555-.8555h-9.69923c-4.48438 0-8.2148461 3.668-8.19922109 8.1524.0078125 2.2226.91796909 4.2461 2.38672109 5.7109.8789.8789 1.95703 1.5586 3.15625 1.9648.63672.2149 1.07422.8008 1.10547 1.4766.02734.6484.125 1.293.28906 1.9219.55078 2.1172 1.72656 3.6015 2.76172 4.5586.55863.5156 1.44923.414 1.87893-.2149l.7148-1.0468c.3399-.5.2813-1.1758-.1523-1.5977-.586-.5703-1.2578-1.4453-1.5703-2.6445 0-.0078-.0039-.0157-.0079-.0235-.2617-1.0156.5157-2.0039 1.5665-2.0039h5.7695c.4726 0 .8555-.3828.8555-.8554.3281.0625.6523.1289.9765.1992 1.8672.4179 3.7266 1.039 5.3789 1.7929 2.8555 1.3047 5.4688 3.1133 7.7656 5.379.2344.2343.5508.3593.879.3593.0898 0 .1796-.0078.2695-.0312.414-.0899.7539-.3828.9023-.7813 1.3946-3.707 2.2305-7.5625 2.4922-11.4922.7735-.3437 1.3399-1.4218 1.3399-2.6953 0-1.2734-.5743-2.3554-1.3477-2.6992z" fill="#5a57c6"/><path d="m26.1445 25.7383c2.5469 1.1601 4.9102 2.6836 7.0547 4.5469 1.1953-3.7305 1.8008-7.6016 1.8008-11.5352s-.6055-7.8047-1.8008-11.53516c-2.1445 1.85938-4.5078 3.38676-7.0547 4.54686-1.7148.7617-5.5945 2.2805-7.3945 2.2617v9.4571c1.8464.4435 5.9102 1.5161 7.3945 2.2578z" fill="#edecff"/></g></svg>

<svg width="40" height="40" viewBox="0 0 40 40" fill="none" xmlns="http://www.w3.org/2000/svg">
<g clip-path="url(#clip0_473_228)">
<path d="M37.4102 16.0547C37.1485 12.1211 36.3165 8.26955 34.9219 4.55861C34.8492 4.36312 34.7284 4.18909 34.5707 4.05255C34.413 3.91602 34.2235 3.82138 34.0196 3.77736C33.6055 3.68752 33.1758 3.81252 32.875 4.10939C30.5782 6.37502 27.9688 8.18361 25.1094 9.4883C23.4727 10.2344 21.6094 10.8555 19.7266 11.2813C19.4024 11.3555 19.0782 11.4219 18.754 11.4844V11.4805C18.754 11.0078 18.3711 10.625 17.8985 10.625H8.19927C3.71489 10.625 -0.0155761 14.293 4.89062e-05 18.7774C0.00786141 21 0.918018 23.0235 2.38677 24.4883C3.26567 25.3672 4.3438 26.0469 5.54302 26.4531C6.17974 26.668 6.61724 27.2539 6.64849 27.9297C6.67583 28.5781 6.77349 29.2227 6.93755 29.8516C7.48833 31.9688 8.66411 33.4531 9.69927 34.4102C10.2579 34.9258 11.1485 34.8242 11.5782 34.1953L12.293 33.1485C12.6329 32.6485 12.5743 31.9727 12.1407 31.5508C11.5547 30.9805 10.8829 30.1055 10.5704 28.9063C10.5704 28.8985 10.5665 28.8906 10.5625 28.8828C10.3008 27.8672 11.0782 26.8789 12.129 26.8789H17.8985C18.3711 26.8789 18.754 26.4961 18.754 26.0235C19.0821 26.086 19.4063 26.1524 19.7305 26.2227C21.5977 26.6406 23.4571 27.2617 25.1094 28.0156C27.9649 29.3203 30.5782 31.1289 32.875 33.3946C33.1094 33.6289 33.4258 33.7539 33.754 33.7539C33.8438 33.7539 33.9336 33.7461 34.0235 33.7227C34.4375 33.6328 34.7774 33.3399 34.9258 32.9414C36.3204 29.2344 37.1563 25.3789 37.418 21.4492C38.1915 21.1055 38.7579 20.0274 38.7579 18.7539C38.7579 17.4805 38.1836 16.3985 37.4102 16.0547Z" fill="#5A57C6"/>
<path d="M26.1445 25.7383C28.6914 26.8984 31.0547 28.4219 33.1992 30.2852C34.3945 26.5547 35 22.6836 35 18.75C35 14.8164 34.3945 10.9453 33.1992 7.21484C31.0547 9.07422 28.6914 10.6016 26.1445 11.7617C24.4297 12.5234 20.55 14.0422 18.75 14.0234V23.4805C20.5964 23.924 24.6602 24.9966 26.1445 25.7383Z" fill="#EDECFF"/>
</g>
<defs>
<clipPath id="clip0_473_228">
<rect width="40" height="40" fill="white"/>
</clipPath>
</defs>
</svg>
